X: 39744
T: Thadelo's
R: slide
M: 12/8
K: Amajor
c3 cBA B2A f2e|A2B c2d e3e2c|BAB c2A B2A f2e|A2B c2B A3A2B|
ccc cBA B2A f2e|A2B c2d e3e2c|BAB c2A B2A f2e|A2B c2B A3Afa|
f2e c2A B2A f2e|f2e c2d e3efa|f2e c2A B2A f2e|A2B c2B A3Afa|
f2e c2A B2A f2e|f2e c2d e3efa|f2e c2A B2A f2e|A2B c2B A3A2B||

